resources/svg/clipboard.svg

<svg width="15" height="15" viewBox="0 0 15 15" fill="none" xmlns="http://www.w3.org/2000/svg">
<path fill-rule="evenodd" clip-rule="evenodd" d="M11 0H4V1H1V13.5C1 14.3284 1.67157 15 2.5 15H12.5C13.3284 15 14 14.3284 14 13.5V1H11V0ZM10 1H5V2.5C5 2.77614 5.22386 3 5.5 3H9.5C9.77614 3 10 2.77614 10 2.5V1Z" fill="black"/>
</svg>

<svg viewBox="0 0 15 15" fill="none" xmlns="http://www.w3.org/2000/svg" fill="currentColor"><path fill-rule="evenodd" clip-rule="evenodd" d="M11 0H4v1H1v12.5A1.5 1.5 0 002.5 15h10a1.5 1.5 0 001.5-1.5V1h-3V0zm-1 1H5v1.5a.5.5 0 00.5.5h4a.5.5 0 00.5-.5V1z" fill="currentColor"/></svg>
